src/symbolic/categories/applications-graphics-symbolic.svg

<svg xmlns="http://www.w3.org/2000/svg" width="16" height="16"><path d="M7.83 4.25C8.94 3.07 8.98 3 11.63 1 10.59.38 9.37.04 8.33 0h-.44c-2.11.03-4.94.8-4.9 3.28C3.04 5.87 5.91 4.94 6.15 6m-.16-4.47c.83 0 1.5.68 1.5 1.5 0 .83-.67 1.5-1.5 1.5s-1.5-.67-1.5-1.5c0-.82.67-1.5 1.5-1.5zm7.27.67c-1.42 2.23-2.37 3.55-3.37 4.58-.64.66-1.16 1.31-1.62 1.78-.84.89-1.94 1.94-3.15 3.1.06 1.47.81 2.74 3.24 3.22 3.9.75 8.03-1.83 7.61-7.07-.18-2.24-1.4-4.28-2.71-5.61zM13.6 6c.55 0 1 .45 1 1s-.45 1-1 1-1-.45-1-1 .45-1 1-1zm-.62 3c.55 0 .99.45.99 1s-.44 1-.99 1-1-.45-1-1 .45-1 1-1zm-4.99 2a1 1 0 0 1 0 2c-.55 0-1-.45-1-1s.45-1 1-1zm2.99 0c.55 0 1 .45 1 1s-.45 1-1 1-1-.45-1-1 .45-1 1-1zM0 13.5c1.55 0 1.39-1.79 2.15-2.29.87-.57 1.64.14 1.79.73.19.74-.12 1.63-1.13 1.88-1.07.27-2.66.28-2.81-.32z" fill="#444"/><path d="M6.91 6.43C5.04 8.5 3.19 11.11 2 13.06c2.97-2.29 4.91-4.16 6.14-5.47.24-.24.53-.56.85-.92C10.2 5.34 11.92 3.23 14.04 0c-1.8 1.3-4.21 3.3-6.12 5.34" fill="#444"/></svg>

<svg xmlns="http://www.w3.org/2000/svg" width="16" height="16" version="1.1">
 <path style="fill:#444444" d="M 7.83,4.25 C 8.94,3.07 8.98,3 11.63,1 10.59,0.38 9.37,0.04 8.33,0 H 7.89 C 5.78,0.03 2.95,0.8 2.99,3.28 3.04,5.87 5.91,4.94 6.15,6 M 5.99,1.53 C 6.82,1.53 7.49,2.21 7.49,3.03 7.49,3.86 6.82,4.53 5.99,4.53 5.16,4.53 4.49,3.86 4.49,3.03 4.49,2.21 5.16,1.53 5.99,1.53 Z M 13.26,2.2 C 11.84,4.43 10.89,5.75 9.89,6.78 9.25,7.44 8.73,8.09 8.27,8.56 7.43,9.45 6.33,10.5 5.12,11.66 5.18,13.13 5.93,14.4 8.36,14.88 12.26,15.63 16.39,13.05 15.97,7.81 15.79,5.57 14.57,3.53 13.26,2.2 Z M 13.6,6 C 14.15,6 14.6,6.45 14.6,7 14.6,7.55 14.15,8 13.6,8 13.05,8 12.6,7.55 12.6,7 12.6,6.45 13.05,6 13.6,6 Z M 12.98,9 C 13.53,9 13.97,9.45 13.97,10 13.97,10.55 13.53,11 12.98,11 12.43,11 11.98,10.55 11.98,10 11.98,9.45 12.43,9 12.98,9 Z M 7.99,11 C 8.53,11 8.98,11.45 8.98,12 8.98,12.55 8.53,13 7.99,13 7.44,13 6.99,12.55 6.99,12 6.99,11.45 7.44,11 7.99,11 Z M 10.98,11 C 11.53,11 11.98,11.45 11.98,12 11.98,12.55 11.53,13 10.98,13 10.43,13 9.98,12.55 9.98,12 9.98,11.45 10.43,11 10.98,11 Z"/>
 <path style="fill:#444444" d="M 0,13.5 C 1.55,13.5 1.39,11.71 2.15,11.21 3.02,10.64 3.79,11.35 3.94,11.94 4.13,12.68 3.82,13.57 2.81,13.82 1.74,14.09 0.15,14.1 0,13.5 Z"/>
 <path style="fill:#444444" d="M 6.91,6.43 C 5.04,8.5 3.19,11.11 2,13.06 4.97,10.77 6.91,8.9 8.14,7.59 8.38,7.35 8.67,7.03 8.99,6.67 10.2,5.34 11.92,3.23 14.04,0 12.24,1.3 9.83,3.3 7.92,5.34"/>
</svg>
